X:1
T:Title
%%score { ( 1 4 ) | ( 2 3 ) }
L:1/8
M:6/8
K:G
V:1 treble nm="Grand Piano"
V:4 treble 
V:2 bass 
V:3 bass 
V:1
 z3 z2[Q:1/4=100] B | B2 D D2 B | [Ec]2 [CE] [CE]2 [EA] | AGF [^CG]2 [CE] | D3- D2 B | B2 D D2 B | %6
 [Ec]2 [CE] [CE]2 [Ec] | BA[B,DG] [CDA]2 [CDF] |[M:5/8] [B,DG]-[B,DG]- [B,DG]3 |[M:1/8] B | %10
[M:3/4] de d B2 G | c6 | cd [Fc] [FA]2 D | B6 | de d G2 [DF] |[M:7/8] [CF]2 [CE] [Ec]3 [EA] | %16
[M:3/4] GA B D2 A |[M:5/8] [B,G]-[B,G]- [B,G]3 |] %18
V:2
 z3 z2 [G,D] | [G,D]2 [G,B,] [G,B,]2 [G,D] | [C,G,]2 [C,G,] [C,G,]2 [C,C] | .[D,D]3 z3 | %4
 [D,F,]3- [D,F,]2 [G,D] | [G,D]2 [G,B,] [G,B,]2 [G,D] | [C,G,]2 [C,G,] [C,G,]2 [C,G,] | .G,3 z3 | %8
[M:5/8] G,,-G,,- G,,3 |[M:1/8] G, |[M:3/4] B,[K:treble]C [G,B,G] [G,DG]2[K:bass] [G,B,] | A,6 | %12
 A,B, [D,A,] [D,C]2 [D,F,] | [G,D]2 G, G,2[K:treble] [G,G] | %14
 [G,B,G][G,CG] [G,B,G] [G,B,D]2[K:bass] [B,,G,] |[M:7/8] [C,G,]2 [C,G,] [C,G,]3 [C,A,] | %16
[M:3/4] [D,B,D]2 [D,G,D] [D,F,C]2 [D,F,C] |[M:5/8] [G,,G,]-[G,,G,]- [G,,G,]3 |] %18
V:3
 x6 | x6 | x6 | CB,[D,A,D] [A,,A,]2 [A,,G,] | x6 | x6 | x6 | [D,D]-[D,A,D]D, D,2 D, |[M:5/8] x5 | %9
[M:1/8] x |[M:3/4] x[K:treble] x4[K:bass] x | D,2 D, D,2 F, | x6 | x5[K:treble] x | x5[K:bass] x | %15
[M:7/8] x7 |[M:3/4] x6 |[M:5/8] x5 |] %18
V:4
 x6 | x6 | x6 | x6 | x6 | x6 | x6 | x6 |[M:5/8] x5 |[M:1/8] x |[M:3/4] x6 | F2 F F2 A | x6 | %13
 z2 D D2 B | x6 |[M:7/8] x7 |[M:3/4] x6 |[M:5/8] x5 |] %18

